svg/fluentui-system-icons/ic_fluent_channel_add_20_filled.svg

<svg width="20" height="20" viewBox="0 0 20 20" fill="none" xmlns="http://www.w3.org/2000/svg">
<path d="M5.5 3C4.46611 3 3.57881 3.6276 3.19828 4.52261C3.29668 4.50772 3.39744 4.5 3.5 4.5C4.60457 4.5 5.5 5.39543 5.5 6.5C5.5 7.60457 4.60457 8.5 3.5 8.5C3.32735 8.5 3.15981 8.47812 3 8.43699V14.5C3 15.8807 4.11929 17 5.5 17H9.59971C9.21628 16.2499 9 15.4002 9 14.5C9 13.5998 9.21628 12.7501 9.59971 12H7.5C7.22386 12 7 11.7761 7 11.5C7 11.2239 7.22386 11 7.5 11H10.2572C11.266 9.7785 12.7921 9 14.5 9C15.4002 9 16.2499 9.21628 17 9.59971V5.5C17 4.11929 15.8807 3 14.5 3H5.5ZM7 8.5C7 8.22386 7.22386 8 7.5 8H12.5C12.7761 8 13 8.22386 13 8.5C13 8.77614 12.7761 9 12.5 9H7.5C7.22386 9 7 8.77614 7 8.5ZM3.5 5.5C3.31786 5.5 3.14709 5.5487 3 5.63378C2.7011 5.80669 2.5 6.12986 2.5 6.5C2.5 6.87014 2.7011 7.19331 3 7.36622C3.14709 7.4513 3.31786 7.5 3.5 7.5C4.05228 7.5 4.5 7.05228 4.5 6.5C4.5 5.94772 4.05228 5.5 3.5 5.5ZM19 14.5C19 16.9853 16.9853 19 14.5 19C12.0147 19 10 16.9853 10 14.5C10 12.0147 12.0147 10 14.5 10C16.9853 10 19 12.0147 19 14.5ZM15 12.5C15 12.2239 14.7761 12 14.5 12C14.2239 12 14 12.2239 14 12.5V14H12.5C12.2239 14 12 14.2239 12 14.5C12 14.7761 12.2239 15 12.5 15H14V16.5C14 16.7761 14.2239 17 14.5 17C14.7761 17 15 16.7761 15 16.5V15H16.5C16.7761 15 17 14.7761 17 14.5C17 14.2239 16.7761 14 16.5 14H15V12.5Z" fill="#212121"/>
</svg>

<svg xmlns="http://www.w3.org/2000/svg" width="20" height="20"><path d="M5.5 3a2.5 2.5 0 0 0-2.302 1.523A2 2 0 1 1 3 8.437V14.5A2.5 2.5 0 0 0 5.5 17h4.1a5.47 5.47 0 0 1-.6-2.5c0-.9.216-1.75.6-2.5H7.5a.5.5 0 0 1 0-1h2.757A5.489 5.489 0 0 1 14.5 9c.9 0 1.75.216 2.5.6V5.5A2.5 2.5 0 0 0 14.5 3h-9ZM7 8.5a.5.5 0 0 1 .5-.5h5a.5.5 0 0 1 0 1h-5a.5.5 0 0 1-.5-.5Zm-3.5-3a1 1 0 1 0 0 2 1 1 0 0 0 0-2Zm15.5 9a4.5 4.5 0 1 1-9 0 4.5 4.5 0 0 1 9 0Zm-4-2a.5.5 0 0 0-1 0V14h-1.5a.5.5 0 0 0 0 1H14v1.5a.5.5 0 0 0 1 0V15h1.5a.5.5 0 0 0 0-1H15v-1.5Z"/></svg>
